advanced/dapps/react-dapp-v2/public/assets/multiversx_logo.svg

<svg fill="none" height="300" viewBox="0 0 300 300" width="300" xmlns="http://www.w3.org/2000/svg"><rect fill="#000" height="300" rx="150" width="300"/><path d="m158.482 149.928 70.232-37.399-11.795-22.529-64.344 25.854c-1.652.669-3.498.669-5.15 0l-64.3436-25.854-11.8314 22.602 70.232 37.398-70.232 37.398 11.8314 22.602 64.3436-26.052c1.652-.669 3.498-.669 5.15 0l64.344 25.926 11.831-22.602z" fill="#23f7dd"/></svg>

<svg width="300" height="300" viewBox="0 0 300 300" fill="none" xmlns="http://www.w3.org/2000/svg">
<rect width="300" height="300" rx="150" fill="black"/>
<path d="M158.482 149.928L228.714 112.529L216.919 90L152.575 115.854C150.923 116.523 149.077 116.523 147.425 115.854L83.0814 90L71.25 112.602L141.482 150L71.25 187.398L83.0814 210L147.425 183.948C149.077 183.279 150.923 183.279 152.575 183.948L216.919 209.874L228.75 187.272L158.482 149.928Z" fill="#23F7DD"/>
</svg>
